icons/drag-move-line.svg

<svg xmlns="http://www.w3.org/2000/svg" width="24" height="24" fill="none"><g clip-path="url(#a)"><g><path fill="#121212" d="M12 2L16.243 6.243L14.828 7.657L12 4.828L9.172 7.657L7.757 6.243L12 2ZM2 12L6.243 7.757L7.657 9.172L4.828 12L7.657 14.828L6.243 16.243L2 12ZM22 12L17.757 16.243L16.343 14.828L19.172 12L16.343 9.172L17.757 7.757L22 12ZM12 14C11.4696 14 10.9609 13.7893 10.5858 13.4142C10.2107 13.0391 10 12.5304 10 12C10 11.4696 10.2107 10.9609 10.5858 10.5858C10.9609 10.2107 11.4696 10 12 10C12.5304 10 13.0391 10.2107 13.4142 10.5858C13.7893 10.9609 14 11.4696 14 12C14 12.5304 13.7893 13.0391 13.4142 13.4142C13.0391 13.7893 12.5304 14 12 14ZM12 22L7.757 17.757L9.172 16.343L12 19.172L14.828 16.343L16.243 17.757L12 22Z"/></g></g><defs><clipPath id="a"><rect width="24" height="24" fill="white"/></clipPath></defs></svg>

<svg width="24" height="24" fill="none" xmlns="http://www.w3.org/2000/svg"><g clip-path="url(#a)"><path d="m12 2 4.243 4.243-1.415 1.414L12 4.828 9.172 7.657 7.757 6.243 12 2ZM2 12l4.243-4.243 1.414 1.415L4.828 12l2.829 2.828-1.414 1.415L2 12Zm20 0-4.243 4.243-1.414-1.415L19.172 12l-2.829-2.828 1.414-1.415L22 12Zm-10 2a2 2 0 1 1 0-4 2 2 0 0 1 0 4Zm0 8-4.243-4.243 1.415-1.414L12 19.172l2.828-2.829 1.415 1.414L12 22Z" /></g><defs><clipPath id="a"><path fill="#fff" d="M0 0h24v24H0z"/></clipPath></defs></svg>
